!!!COM: Bach, Johann Sebastian
!!!OPR: Joh. Seb. Bachs vierstimmige Choralgesänge
!!!XEN: Four-part Chorales
!!!OTL: 92. Ich bin ja, Herr, in deiner Macht
!!!SCT: BWV 345
!!!SCA: Thematisch-systematisches Verzeichnis der musikalischen Werke Johann Sebastian Bach: Bach-Werke-Verzeichnis (Schmieder)
!!!YOR: Bach Gesellschaft Edition xxxix
!!!ENC: Steven Rasmussen
!!!CDT: 1685/3//-1750/7/28/
!!!OCY: Deutschland
!!!YEC: Copyright (c) 1994, 2000 Center for Computer Assisted Research in the Humanities
!!!YEM: Rights to all derivative editions reserved
!!!YEN: United States of America
**kern	**silbe	**kern	**silbe	**kern	**kern
*I:[SOPRANO]	*I:[SOPRANO]	*I:[ALTO]	*I:[ALTO]	*I:[TENORE]	*I:[BASSO]
*>[A,A,B]	*	*>[A,A,B]	*	*>[A,A,B]	*>[A,A,B]
*>A	*	*>A	*	*>A	*>A
*clefG2	*	*clefG2	*	*clefGv2	*clefF4
*k[b-e-]	*	*k[b-e-]	*	*k[b-e-]	*k[b-e-]
*g:	*	*g:	*	*g:	*g:
*M4/4	*	*M4/4	*	*M4/4	*M4/4
4g	Ichdu	4d	.	4B-	4G
=1	=1	=1	=1	=1	=1
4a	binken-	4e-	.	8cL	4G
.	.	.	.	8B-J	.
8aL	ja,-nest	4d	.	4A	4F#
16b-L	.	.	.	.	.
16ccJJ	.	.	.	.	.
8b-	Herr,mei-	4.d	Herr,mei-	4.G	4.G
8g	in-ner	.	.	.	.
[4dd	dei-Mon-	.	.	.	.
.	.	8d	in-ner	8A	8Fn
=2	=2	=2	=2	=2	=2
8ddL]	.	4g	dei-Mon-	4B-	8E-L
16ccL	.	.	.	.	8DJ
16b-J	.	.	.	.	.
8aJ	.	8f#L	-ner-den	8cL	8E-L
8g	-ner-den	8gJ	.	8B-J	8CJ
4f#;	Macht,Zahl,	4d;	.	4A;	4D;
4a	duweisst,	4f#	.	4d	4D
=3	=3	=3	=3	=3	=3
4b-	hastwann	4g	.	4d	4G
8ccL	michich	4f	.	4c	4A
16ddL	.	.	.	.	.
16ee-JJ	.	.	.	.	.
8dd	andie-	4.f	andie-	4.B-	4.B-
8b-	das-sem	.	.	.	.
[4ff	LichtJam-	.	.	.	.
.	.	8f	das-sem	8c	8A
=4	=4	=4	=4	=4	=4
8ffL]	.	4b-	LichtJam-	4d	8GL
16eenL	.	.	.	.	8FJ
16ddJ	.	.	.	.	.
8ccJ	.	8ccL	ge--mer-	8GL	8EnL
8b-	ge--mer-	8enJ	.	8cJ	8CJ
4a;	-bracht-tal	4f;	-bracht-tal	4c;	4F;
4dd	undauch	4f	.	4B-	4B-
=5	=5	=5	=5	=5	=5
4cc#	duwie-	4g	.	4B-	4En
4dd	er--der	4f	.	4A	4F
8een	-hÃ¤ltstgu-	8en	.	8A	8C#
16ffLL	mir-te	8e	.	8A	8C#
16ggJJ	.	.	.	.	.
8ff	auchNacht	8d	.	8A	8D
8ee	dassoll	8d	.	8d	8D
=6	=6	=6	=6	=6	=6
2eent	Le-ge-	8enL	.	8dL	4A
.	.	8fJ	.	16c#L	.
.	.	.	.	16BnJJ	.
.	.	4g	.	4c#	4AA
4dd;	-ben;-ben.	4f#;	.	4A;	4D;
=:|!	=:|!	=:|!	=:|!	=:|!	=:|!
*>B	*	*>B	*	*>B	*>B
4dd	Wo,	4a	.	4d	4F#
=7	=7	=7	=7	=7	=7
8b-L	wie	4g	.	4d	4G
8aJ	.	.	.	.	.
8bnL	und	4g	.	4d	4F
8ddJ	.	.	.	.	.
8gg	wann	4.g	wann	4.c	4.E-
8ee-	ich	.	.	.	.
4cc	ster-	.	.	.	.
.	.	8e-	ich	8c	8A-
=8	=8	=8	=8	=8	=8
8ddL	.	4a-	ster-	4c	8FL
8ffJ	.	.	.	.	8DJ
8ee-L	-ben	4g	-ben	4Bn	4G
8ddJ	.	.	.	.	.
4ee-;	soll,	4g;	soll,	4c;	4C;
4a	das	4f#	.	4d	4c
=9	=9	=9	=9	=9	=9
4dd	weisst	8gL	.	4d	8B-L
.	.	8fJ	.	.	8AJ
4g	du,	4en	.	4c	8B-L
.	.	.	.	.	8cJ
8ccL	Va-	8f#L	.	8cL	8AL
16ddL	.	8gJ	.	8B-J	8GJ
16ee-JJ	.	.	.	.	.
8ddL	-ter,	4a	.	8AL	4F#
8ccJ	.	.	.	8dJ	.
=10	=10	=10	=10	=10	=10
4b-	mehr	8aL	.	4d	4G
.	.	8gJ	.	.	.
8aL	als	4f#	.	8cL	4D
8gJ	.	.	.	8B-J	.
4g;	wohl.	4d;	.	4B-;	4GG;
==|!	==|!	==|!	==|!	==|!	==|!
*-	*-	*-	*-	*-	*-
!!!RWG: Key is interpreted using the Humdrum key tool.
!!!END: 1994/06/27
!!!EMD: Converted from MuseData to Humdrum Dec 19, 2000, by Andreas Kornstaedt using muse2kern.
!!!EED: Craig Stuart Sapp
!!!EEV: 2024/03/31
!!!ONB: Some non-unicode characters
